!!!OTL: Aue verum corpus natum
**kern
*staff1
=--
*clefG2
*k[]
2cc
2b
1cc
1a
=-
2g
2cc
1b
1cc
=-
2ee
2ee
1ff
=-
2ee
2.dd
4cc
1cc
2b
1cc
!!linebreak:original
=-
2b
2a
1b
1g
=-
2g
2g
1a
1b
=-
2ee
2ee
1ff
=-
2ee
2.dd
4cc
1cc
2b
1cc
=-
!!linebreak:original
1g
1a
1g
=-
1g
1a
1g
=-
1g
1a
1g
!!linebreak:original
=-
0cc
=-
1cc
1cc
2cc
2b
=-
0a
1b
=-
1.e
2e
1f
=-
1g
0a
=-
0g
=-=
*-
!!title: @{OTL}, @{GTL}, ed. @{ENC}
!!!pag:
!!!GTL: Hymnbook C
!!!EFL: 
!!!YEM: Creative Commons CC/BY/NC/SA 4.0
!!!ENC: Marcin Konik
!!!END: 2015-0m-dd
!!!EED: Marcin Konik
!!!EEV: 
!!!ONB: Encoded in vim by Marcin Konik
!!!CharacterEncoding: utf-8
!!!RDF**kern: l=long note in original notation
!!!RDF**kern: i=editorial accidental
!!muse2ps: z14jc180F
!!!COM: Anonim
!!!CDT: [?]
!!!TXO: Polish
!!!ODT: 
!!!GTL: Hymnbook C
!!!ARL: Opactwo św. Wojciecha, Staniątki 
!!!voices:	1
